X:1
T:He Lives! The Savior Lives!
T:He Lives! The Savior Lives!
T:Arranged from Verdi by Isaac Hickman Meredith
T:Jessie MacDonald, 1912
T:Public Domain Courtesy of the Cyber Hymnal™
T:Public Domain Courtesy of the Cyber Hymnal™
C:Arranged from Verdi by Isaac Hickman Meredith
Z:Public Domain
Z:Courtesy of the Cyber Hymnal™
%%score ( 1 2 ) ( 3 4 )
L:1/8
Q:1/4=105
M:3/4
K:F
V:1 treble 
V:2 treble 
V:3 bass 
V:4 bass 
V:1
|:"^Unison" A2 F2 C2 | (F3 G) G2 | A2 F2 C2 | (F3 G) F2 | B2 G2 E2 | (c3 d) c2 | B2 D2 E2 | %7
w: 1.~Si- lent a|gar- * den|rest- eth in|sha- * dow—|Sha- dow the|moon- * light|can- not dis-|
w: 2.~Still- ness un-|bro- * ken!|far in the|dis- * tance|White gleam the|road- * ways,|mid- night has|
w: 3.~Morn- ing ap-|proach- * eth,|earth’s fair- est|morn- * ing,|Bright in the|hea- * vens,|glo- ry ap-|
 (F4 C2) | A2 F2 C2 | (F3 G) F2 | A2 F2 C2 | (F3 G) F2 | B2 G2 E2 | (c3 d) c2 | G2 A2 =B2 | c4 z2 | %16
w: pel; *|Sol- diers in|ar- * mor,|grim Ro- man|sol- * diers,|Watch o’er a|sleep- * er,|guard- ing Him|well.|
w: sped; *|Lo! earth is|shak- * en!|God sends an|an- * gel!|Sol- diers in|ter- * ror|fall as if|dead!|
w: pears; *|Vi- sions of|an- * gels|seen in the|dawn- * ing,|Voic- es of|an- * gels|calm- ing earth’s|fears.|
"^Soprano & Alto" [FA]2 [FA]2 [GB]2 | [Ac]4 ([Bd][Ac]) | [FA]2 [FA]2 [GB]2 | [Ac]4 [Af]2 | %20
w: O- ver Ju-|de- a *|late- ly He|trod On|
w: Seal, thou art|brok- en, *|He who was|there Is|
w: Why seek the|liv- ing *|here ’mid the|dead? For|
 [ce]2 [Bd]2 [Ac]2 | [FA]4 ([Bd][Ac]) | [Ac]2 [GB]2 [EG]2 | F4 || %24
w: er- rands of|love to *|lead men to|God.|
w: might- y to|save! His *|power you de-|clare!|
w: Je- sus the|Lord is *|ris’n as He|said.|
"^Refrain. Parts. All voices." [Fc]2 | [Ec]2 [F=B]2 [G_B]2 | [FB]2 [FA]2 [CA]2 | %27
w: |||
w: O|blest East- er|sto- ry, O|
w: |||
 [^CA]2 [D^G]2 [E=G]2 | [DG]2 [DF]2 [Ff]2 | [Ge]2 [Gd]2 [Gc]2 | [FA]4 [Fd][Fc] | %31
w: ||||
w: fore- taste of|glo- ry, Tri-|umph- ant o’er|death, Je- sus|
w: ||||
 [Ec]2 [EB]2 [EG]2 | [FA]4 [Fc]2 | [Ec]2 [F=B]2 [G_B]2 | [FB]2 [FA]2 [CA]2 | [^CA]2 [D^G]2 [E=G]2 | %36
w: |||||
w: rose from the|dead; Re-|deem- er and|Sav- ior! Ex-|alt- ed for-|
w: |||||
 [DG]2 [DF]2 [Ff]2 | [Ge]2 [Gd]2 [Gc]2 | [FA]4 [Fd][Fc] | [Ec]2 [EB]2 [EG]2 | F4"^Play 3 times" :| %41
w: |||||
w: ev- er! Re-|peat the blest|words, “He is|ris’n as He|said!”|
w: |||||
 (Ac) | [Ec]3 [Fc] [Gc][Ec] | [Fc]4 (Ac) | [Ec]3 [Fc] [Gc][Ec] | !fermata![Ff]6 |] %46
w: |||||
w: He *|lives, the Sav- ior|lives! He *|lives, the Sav- ior|lives!|
w: |||||
V:2
|: x6 | x6 | x6 | x6 | x6 | x6 | x6 | x6 | x6 | x6 | x6 | x6 | x6 | x6 | x6 | x6 | x6 | x6 | x6 | %19
 x6 | x6 | x6 | x6 | F4 || x2 | x6 | x6 | x6 | x6 | x6 | x6 | x6 | x6 | x6 | x6 | x6 | x6 | x6 | %38
 x6 | x6 | F4 :| F2 | x6 | x4 F2 | x6 | x6 |] %46
V:3
|: F,,2 [C,F,A,]2 [C,F,A,]2 | F,,2 [C,F,A,]2 [C,F,A,]2 | F,,2 [C,F,A,]2 [C,F,A,]2 | %3
 F,,2 [C,F,A,]2 [C,F,A,]2 | C,,2 [C,E,B,]2 [C,E,B,]2 | F,,2 [C,F,A,]2 [C,F,A,]2 | %6
 C,,2 [C,E,B,]2 [C,E,B,]2 | F,,2 [C,F,A,]2 [C,F,A,]2 | F,,2 [C,F,A,]2 [C,F,A,]2 | %9
 F,,2 [C,F,A,]2 [C,F,A,]2 | F,,2 [C,F,A,]2 [C,F,A,]2 | F,,2 [C,F,A,]2 [C,F,A,]2 | %12
 D,,2 [C,E,B,]2 [C,E,B,]2 | F,,2 [C,F,A,]2 [C,F,A,]2 | G,,2 [F,G,=B,]2 [F,G,B,]2 | [C,E,G,C]4 z2 | %16
 (F,C) (A,C) (G,C) | (F,CA,C) (G,C) | (F,C) (A,C) (G,C) | (F,CA,C) (F,C) | (C,C) (D,C) (E,C) | %21
 (F,CA,C) (A,C) | (C,C) (C,C) (C,C) | [F,A,]4 || [F,A,]2 | [C,G,]2 [D,G,]2 [E,C]2 | %26
 [F,D]2 [F,C]2 [F,A,]2 | [A,,A,]2 [=B,,A,]2 [^C,A,]2 | [D,B,]2 [D,A,]2 [A,,C]2 | %29
 [C,C]2 [D,C]2 [E,C]2 | [F,C]4 [F,B,][F,A,] | [C,G,]2 [C,G,]2 [C,C]2 | [F,C]4 [F,A,]2 | %33
 [C,G,]2 [D,G,]2 [E,C]2 | [F,D]2 [F,C]2 [F,A,]2 | [A,,A,]2 [=B,,A,]2 [^C,A,]2 | %36
 [D,B,]2 [D,A,]2 [A,,C]2 | [C,C]2 [D,C]2 [E,C]2 | [F,C]4 [F,B,][F,A,] | [C,G,]2 [C,G,]2 [C,B,]2 | %40
 [F,A,]4"^Play 3 times" :| (CA,) | [C,G,]3 [D,G,] [E,G,][C,B,] | [F,A,]4 (CA,) | %44
 [C,G,]3 [C,A,] [C,B,][C,B,] | !fermata![F,A,]6 |] %46
V:4
|: x6 | x6 | x6 | x6 | x6 | x6 | x6 | x6 | x6 | x6 | x6 | x6 | x6 | x6 | x6 | x6 | x6 | x6 | x6 | %19
 x6 | x6 | x6 | x6 | x4 || x2 | x6 | x6 | x6 | x6 | x6 | x6 | x6 | x6 | x6 | x6 | x6 | x6 | x6 | %38
 x6 | x6 | x4 :| F,2 | x6 | x4 F,2 | x6 | x6 |] %46

